img/table-th-sort-arrows.svg

<svg width="24" height="24" viewBox="0 0 24 24" fill="none" xmlns="http://www.w3.org/2000/svg">
<path fill-rule="evenodd" clip-rule="evenodd" d="M10.3553 14.855L11.6503 16.15C11.8453 16.345 12.1603 16.345 12.3553 16.15L13.6503 14.855C13.9653 14.54 13.7403 14 13.2953 14H10.7053C10.2603 14 10.0403 14.54 10.3553 14.855Z" fill="#848DA4"/>
<path fill-rule="evenodd" clip-rule="evenodd" d="M13.6447 10.145L12.3497 8.85C12.1547 8.655 11.8397 8.655 11.6447 8.85L10.3497 10.145C10.0347 10.46 10.2597 11 10.7047 11L13.2947 11C13.7397 11 13.9597 10.46 13.6447 10.145Z" fill="#848DA4"/>
</svg>

<svg width="24" height="24" fill="none" xmlns="http://www.w3.org/2000/svg"><path fill-rule="evenodd" clip-rule="evenodd" d="M10.355 14.855l1.295 1.295c.195.195.51.195.705 0l1.295-1.295a.502.502 0 0 0-.355-.855h-2.59a.5.5 0 0 0-.35.855zm3.29-4.71L12.35 8.85a.498.498 0 0 0-.705 0l-1.295 1.295a.502.502 0 0 0 .355.855h2.59a.5.5 0 0 0 .35-.855z" fill="#848DA4"/></svg>
